X: 9367
T: Dancing On The Riverboat
R: polka
M: 2/4
K: Gmajor
|:dg B>A|GB DB|cA FD|GA B>c|
dg B>A|GB DB|cA FD|G2 G2:|
K: Dmaj
|:AB/A/ GE|FA d2|cB/c/ ef|ge cB|
AB/A/ GE|FA d2|cB/c/ ef|1 ef/e/ dB:|2 ef/e/ dc||

